polaris-icons/icons/new-icons/RiskMajor.svg

<svg width="20" height="20" viewBox="0 0 20 20" fill="none" xmlns="http://www.w3.org/2000/svg">
<path d="M9.99994 6.75C10.4142 6.75 10.7499 7.08579 10.7499 7.5V11C10.7499 11.4142 10.4142 11.75 9.99994 11.75C9.58573 11.75 9.24994 11.4142 9.24994 11V7.5C9.24994 7.08579 9.58573 6.75 9.99994 6.75Z" fill="#4A4A4A"/>
<path d="M11 13.5C11 14.0523 10.5523 14.5 10 14.5C9.44772 14.5 9 14.0523 9 13.5C9 12.9477 9.44772 12.5 10 12.5C10.5523 12.5 11 12.9477 11 13.5Z" fill="#4A4A4A"/>
<path fill-rule="evenodd" clip-rule="evenodd" d="M10 3.5C8.95471 3.5 8.21616 4.20232 7.84762 4.94672C7.65565 5.33448 6.75984 7.0441 5.84305 8.79353L5.81531 8.84646C4.9229 10.5493 4.01714 12.2777 3.80716 12.702C3.4351 13.4537 3.32931 14.4519 3.89953 15.316C4.46911 16.1791 5.44222 16.5 6.36356 16.5L13.6364 16.5C14.5577 16.5 15.5308 16.1791 16.1004 15.316C16.6707 14.4519 16.5649 13.4537 16.1928 12.702C15.9832 12.2784 15.08 10.555 14.1889 8.85476L14.1569 8.79352C13.24 7.044 12.3443 5.33454 12.1524 4.94693C11.784 4.20242 11.0454 3.5 10 3.5ZM9.1919 5.61225C9.59605 4.79592 10.4041 4.79592 10.8081 5.61225C11.0102 6.02061 11.9201 7.75686 12.8296 9.49243C13.7383 11.2262 14.6466 12.9594 14.8485 13.3673C15.2525 14.1837 14.8485 15 13.6364 15L6.36356 15C5.1515 15 4.74746 14.1837 5.1515 13.3673C5.35376 12.9587 6.26468 11.2205 7.1748 9.4838C8.08283 7.75111 8.99005 6.01994 9.1919 5.61225Z" fill="#4A4A4A"/>
</svg>

<svg viewBox="0 0 20 20" xmlns="http://www.w3.org/2000/svg"><path d="M10 6.75a.75.75 0 0 1 .75.75v3.5a.75.75 0 1 1-1.5 0v-3.5a.75.75 0 0 1 .75-.75Z" fill="#5C5F62"/><path d="M11 13.5a1 1 0 1 1-2 0 1 1 0 0 1 2 0Z" fill="#5C5F62"/><path fill-rule="evenodd" d="M10 3.5c-1.045 0-1.784.702-2.152 1.447-.192.387-1.088 2.097-2.005 3.847l-.028.052a403.426 403.426 0 0 0-2.008 3.856c-.372.752-.478 1.75.093 2.614.57.863 1.542 1.184 2.464 1.184h7.272c.922 0 1.895-.32 2.464-1.184.57-.864.465-1.862.093-2.614-.21-.424-1.113-2.147-2.004-3.847l-.032-.061a429.497 429.497 0 0 1-2.005-3.847c-.368-.745-1.107-1.447-2.152-1.447Zm-.808 2.112c.404-.816 1.212-.816 1.616 0 .202.409 1.112 2.145 2.022 3.88a418.904 418.904 0 0 1 2.018 3.875c.404.817 0 1.633-1.212 1.633h-7.272c-1.212 0-1.617-.816-1.212-1.633.202-.408 1.113-2.147 2.023-3.883a421.932 421.932 0 0 0 2.017-3.872Z" fill="#5C5F62"/></svg>
